X: 136
T:Primrose Lass, the
M:C|
S:Mike Rafferty
R:reel
O:Ireland
N:this was the first tune Mike played me on his pipes.
D:Paul McGrattan: The Frost is All Over.
Z:Lesl Harker and id:hn-reel-104
K:G
B2BA GAGE|DEGA BA~A2|B2BA GAGE|DEGA BGGA|
B2BA GAGE|DEGA BA~A2|BG~G2 AE~E2|DEGA BGG2:||
|:(3Bcd gd edgd|(3Bcd Gd eA~A2|(3Bcd gd edgd|B~BA^c BG~G2|
(3Bcd gd edgd|(3Bcd Gd eA~A2|(3Bcd ed ~g3e|1dcAc BG~G2:|2dcAc
BGGF|G4||
<end>
<start>
